src/icons/thin/presence-offline.svg

<svg height="24" viewBox="0 0 24 24" width="24" xmlns="http://www.w3.org/2000/svg">
    <path d="m8.602 3.7c-1.154 1.937-.635 5.227 1.424 9.025.93 1.712.697 3.02.338 3.815-.982 2.178-3.675 2.799-6.525 3.456-1.964.454-1.839.87-1.839 4.004h-1.995l-.005-1.241c0-2.52.199-3.975 3.178-4.663 3.365-.777 6.688-1.473 5.09-4.418-4.733-8.729-1.35-13.678 3.732-13.678 3.321 0 5.97 2.117 5.97 6.167 0 3.555-1.949 6.833-2.383 7.833h-2.115c.392-1.536 2.499-4.366 2.499-7.842 0-5.153-5.867-4.985-7.369-2.458z"/>
    <path d="m26.919304-4.513985h1.339685v9.063538h-1.339685z" transform="matrix(.70710678 .70710678 -.70710678 .70710678 0 0)"/>
    <path d="m-.652058-32.120914h1.339685v9.063538h-1.339685z" transform="matrix(-.70710678 .70710678 -.70710678 -.70710678 0 0)"/>
</svg>

<?xml version="1.0" encoding="UTF-8" standalone="no"?>
<svg
   xmlns:dc="http://purl.org/dc/elements/1.1/"
   xmlns:cc="http://creativecommons.org/ns#"
   xmlns:rdf="http://www.w3.org/1999/02/22-rdf-syntax-ns#"
   xmlns:svg="http://www.w3.org/2000/svg"
   xmlns="http://www.w3.org/2000/svg"
   xmlns:sodipodi="http://sodipodi.sourceforge.net/DTD/sodipodi-0.dtd"
   xmlns:inkscape="http://www.inkscape.org/namespaces/inkscape"
   inkscape:version="1.0 (unknown)"
   sodipodi:docname="off.svg"
   id="svg4"
   version="1.1"
   viewBox="0 0 24 24"
   height="24"
   width="24">
  <metadata
     id="metadata10">
    <rdf:RDF>
      <cc:Work
         rdf:about="">
        <dc:format>image/svg+xml</dc:format>
        <dc:type
           rdf:resource="http://purl.org/dc/dcmitype/StillImage" />
        <dc:title></dc:title>
      </cc:Work>
    </rdf:RDF>
  </metadata>
  <defs
     id="defs8" />
  <sodipodi:namedview
     inkscape:current-layer="svg4"
     inkscape:cy="-35.293553"
     inkscape:cx="-165.29293"
     inkscape:zoom="1.4657734"
     showgrid="false"
     id="namedview6"
     inkscape:window-height="480"
     inkscape:window-width="640"
     inkscape:pageshadow="2"
     inkscape:pageopacity="0"
     guidetolerance="10"
     gridtolerance="10"
     objecttolerance="10"
     borderopacity="1"
     bordercolor="#666666"
     pagecolor="#ffffff" />
  <path
     sodipodi:nodetypes="cccccccccssccsc"
     id="path2"
     d="m 8.602,3.7 c -1.154,1.937 -0.635,5.227 1.424,9.025 0.93,1.712 0.697,3.02 0.338,3.815 C 9.382,18.718 6.689,19.339 3.839,19.996 1.875,20.45 2,20.866 2,24 H 0.005 L 0,22.759 C 0,20.239 0.199,18.784 3.178,18.096 6.543,17.319 9.866,16.623 8.268,13.678 3.535,4.949 6.918,0 12,0 15.321,0 17.97,2.117 17.97,6.167 17.97,9.722 16.021,13 15.587,14 h -2.115 c 0.392,-1.536 2.499,-4.366 2.499,-7.842 0,-5.153 -5.867,-4.985 -7.369,-2.458 z" />
  <rect
     transform="rotate(45)"
     y="-4.5139847"
     x="26.919304"
     height="9.0635376"
     width="1.3396848"
     id="rect859"
     style="opacity:1;fill:#000000;fill-opacity:1;stroke:none;stroke-width:0.2;stroke-miterlimit:4;stroke-dasharray:none;stroke-opacity:1;paint-order:normal" />
  <rect
     transform="rotate(135)"
     style="opacity:1;fill:#000000;fill-opacity:1;stroke:none;stroke-width:0.2;stroke-miterlimit:4;stroke-dasharray:none;stroke-opacity:1;paint-order:normal"
     id="rect861"
     width="1.3396848"
     height="9.0635376"
     x="-0.65205783"
     y="-32.120914" />
</svg>
